X:7
T:Friggin' in the Riggin'
C:Roy Watrous, 1952
S:The Watrous Book, 1992
M:6/8
L:1/8
Q:1/8=270
K:G
%%MIDI program 72
%%MIDI transpose 8
%%MIDI ratio 3 1
d|G2B dBG|efg a2b|gfe dBc|dgB A2B|G2B dBG|
efg a2b|gfe dBc|daf g2::g|f2f fed|gbg d2g|
faf ege|dfe dcA|G2B dBG|efg a2b|gfe dBc|daf g2:|]

